X:1
T:晨曦 Dawn
T:晨曦 Dawn
T:大象體操 ElephantGym
C:大象體操 ElephantGym
%%score { 1 | 2 }
L:1/8
Q:1/4=80
M:6/8
K:C
V:1 treble nm="Piano" snm="Pno."
V:2 bass 
V:1
 z2 D F3 | E3 B,3 | z2 D F3 | E3 B,3 | z2 z E2 z | z2 z D3 | z2 z E2 z | z2 z D3 | %8
[Q:1/4=110] z GB Aed | g3 e3 | GBA edg | e2- e b2 g | z [GB][Ac] [GB]2 [Ac] | %13
 [Bd]2 [ce] [Bd][Ac][GB] | z [GB][Ac] [GB]2 [Ac] | [Bd]2 [ce] [eg]2 [ce] | z GB Aed | g3 e3 | %18
 GBA edg | e2- e b2 g | z [GB][Ac] [GB]2 [Ac] | [Bd]2 [ce] [Bd][Ac][GB] | z [GB][Ac] [GB]2 [Ac] | %23
 [Bd]2 [ce] [eg]2 [ce] | z [ce][eg] [ce]2 c | B3 AcB | z [ce][eg] [ce]2 c | B3 dfb | [db]3 [Be]3 | %29
 [Ad]3 [cg]3 | z2 z [eb]2 [Be] | [Ad]3 [cg]3 | [Be]6 | [GB]6 | [FA]6 | [Ad]6 | [Be]6 | [GB]6 | %38
 [FA]6 | [Ad]6 | [_B_e]6 | [G_B]6 | [F_A]6 | [_A_d]6 | [_B_e]6 | [G_B]6 | [F_A]6 | [_A_d]6 | %48
 [Be]6 | [GB]6 | [FA]6 | [Ad]3 [dg]3 | [Be]6 | [GB]6 | [FA]6 | [Ad]6 | [_B_e]6 | [G_B]6 | [F_A]6 | %59
 [_A_d]6 | [_B_e]6 | [G_B]6 | [F_A]6 | [_A_d]6 |[Q:1/4=95] !arpeggio![ee']6 | !arpeggio![bb']6 | %66
 !arpeggio![aa']6 | !arpeggio![dd']6 | !arpeggio![ee']6 | !arpeggio![bb']6 | !arpeggio![aa']6 | %71
 !arpeggio![dd']6 | !arpeggio![ee']6 | !arpeggio![bb']6 | !arpeggio![aa']6 | !arpeggio![dd']6 | %76
 !arpeggio![ebe']6 | !arpeggio![Beb]6 | !arpeggio![Ada]6 | !arpeggio![Gcg]6 |[Q:1/4=120] A^GA eAB | %81
 AGA BAd | A^GA eAB | AGA BAd | [ce]2 [ce]2 [ce]2 | [ce]2 [ce]2 [ce]2 | [ce]2 [ce]2 [ce]2 | %87
 [ce]2 [ce]2 [ce]2 | A^GA eAB | AGA BAd | A^GA eAB | AGA BAd | [ce]2 [ce]2 [ce]2 | %93
 [ce]2 [ce]2 [ce]2 | [ce]2 [ce]2 [ce]2 | [ce]2 [ce]2 [ce]2 | [fa][fb][f-a] [f-b][f-a][f-b] | %97
 [f-a][f-b][f-a] [f-b][f-a][fb] | [fa][fb][f-a] [f-b][f-a][f-b] | [f-a][f-b][f-a] [f-b][f-a][fb] | %100
 [ea][eb][e-a] [e-b][e-a][e-b] | [e-a][e-b][e-a] [e-b][e-a][eb] | [ea][eb][e-a] [e-b][e-a][e-b] | %103
 [e-a][e-b][e-a] [e-b][e-a][eb] | [fa][fb][f-a] [f-b][f-a][f-b] | [f-a][f-b][f-a] [f-b][f-a][fb] | %106
 [fa][fb][f-a] [f-b][f-a][f-b] | [f-a][f-b][f-a] [f-b][f-a][fb] | [ea][eb][e-a] [e-b][e-a][e-b] | %109
 [e-a][e-b][e-a] [e-b][e-a][eb] | [ea][eb][e-a] [e-b][e-a][e-b] | [e-a][e-b][e-a] [e-b][e-a][eb] | %112
[Q:1/4=110] z GB Aed | g3 e3 | GBA edg | e2- e b2 g | z [GB][Ac] [GB]2 [Ac] | %117
 [Bd]2 [ce] [Bd][Ac][GB] | z [GB][Ac] [GB]2 [Ac] | [Bd]2 [ce] [eg]2 [ce] | z [ce][eg] [ce]2 c | %121
 B3 AcB | z [ce][eg] [ce]2 c | B3 dfb | [db]3 [Be]3 | [Ad]3 [cg]3 | z2 z [eb]2 [Be] | [Ad]3 [cg]3 | %128
 [Be]6- | [Be]6 |] %130
V:2
 F,2 z2 z A, | z6 | F,2 z2 z A, | z6 | C,2 G,2 z B, | A,3 z z2 | C,2 G,2 z B, | A,3 z z2 | %8
 F,D F4- | F6 | F,D F4- | F6 | C,A, D4- | D6 | C,A, D4- | D6 | F,D F4- | F6 | F,D F4- | F6 | %20
 C,A, D4- | D6 | C,A, D4- | D6 | F,D F4- | FD F4 | F,D F4- | FD F4 | C,A, D4- | D6 | C,A, D4- | %31
 D6 | [D,F,A,]2 [D,F,A,] [D,F,A,]2 [D,F,A,] | [D,F,A,]2 [D,F,A,] [D,F,A,]2 [D,F,A,] | %34
 [D,F,A,]2 [D,F,A,] [D,F,A,]2 [D,F,A,] | [D,F,A,]2 [D,F,A,] [D,F,A,]2 [D,F,A,] | %36
 [D,F,A,]2 [D,F,A,] [D,F,A,]2 [D,F,A,] | [D,F,A,]2 [D,F,A,] [D,F,A,]2 [D,F,A,] | %38
 [D,F,A,]2 [D,F,A,] [D,F,A,]2 [D,F,A,] | [D,F,A,]2 [D,F,A,] [D,F,A,]2 [D,F,A,] | %40
 [C,F,_A,]2 [C,F,A,] [C,F,A,]2 [C,F,A,] | [C,F,_A,]2 [C,F,A,] [C,F,A,]2 [C,F,A,] | %42
 [C,F,_A,]2 [C,F,A,] [C,F,A,]2 [C,F,A,] | [C,F,_A,]2 [C,F,A,] [C,F,A,]2 [C,F,A,] | %44
 [C,F,_A,]2 [C,F,A,] [C,F,A,]2 [C,F,A,] | [C,F,_A,]2 [C,F,A,] [C,F,A,]2 [C,F,A,] | %46
 [C,F,_A,]2 [C,F,A,] [C,F,A,]2 [C,F,A,] | [C,F,_A,]2 [C,F,A,] [C,F,A,]2 [C,F,A,] | %48
 [D,F,A,]2 [D,F,A,] [D,F,A,]2 [D,F,A,] | [D,F,A,]2 [D,F,A,] [D,F,A,]2 [D,F,A,] | %50
 [D,F,A,]2 [D,F,A,] [D,F,A,]2 [D,F,A,] | [D,F,A,]2 [D,F,A,] [D,F,A,]2 [D,F,A,] | %52
 [D,F,A,]2 [D,F,A,] [D,F,A,]2 [D,F,A,] | [D,F,A,]2 [D,F,A,] [D,F,A,]2 [D,F,A,] | %54
 [D,F,A,]2 [D,F,A,] [D,F,A,]2 [D,F,A,] | [D,F,A,]2 [D,F,A,] [D,F,A,]2 [D,F,A,] | %56
 [C,F,_A,]2 [C,F,A,] [C,F,A,]2 [C,F,A,] | [C,F,_A,]2 [C,F,A,] [C,F,A,]2 [C,F,A,] | %58
 [C,F,_A,]2 [C,F,A,] [C,F,A,]2 [C,F,A,] | [C,F,_A,]2 [C,F,A,] [C,F,A,]2 [C,F,A,] | %60
 [C,F,_A,]2 [C,F,A,] [C,F,A,]2 [C,F,A,] | [C,F,_A,]2 [C,F,A,] [C,F,A,]2 [C,F,A,] | %62
 [C,F,_A,]2 [C,F,A,] [C,F,A,]2 [C,F,A,] | [C,F,_A,]2 [C,F,A,] [C,F,A,]2 [C,F,A,] | [D,F,A,]6- | %65
 [D,F,A,]6- | [D,F,A,]6- | [D,F,A,]6 | [D,F,A,]6- | [D,F,A,]6- | [D,F,A,]6- | [D,F,A,]6 | %72
 [C,E,G,]6- | [C,E,G,]6- | [C,E,G,]6- | [C,E,G,]6 | [C,E,G,]6- | [C,E,G,]6- | [C,E,G,]6- | %79
 [C,E,G,]6 |[K:treble] F2 F2 F2 | F2 F2 F2 | F2 F2 F2 | F2 F2 F2 | z d2 B2 _B- | B A2 G2 E | %86
 z d2 B2 _B- | B A2 G2 E | F2 F2 F2 | F2 F2 F2 | F2 F2 F2 | F2 F2 F2 | z d2 B2 _B- | B A2 G2 E | %94
 z d2 B2 _B- | B A2 G2 E |[K:bass] F,D F4- | F6 | F,D F4- | F6 | C,A, D4- | D6 | C,A, D4- | D6 | %104
 F,D F4- | F6 | F,D F4- | F6 | C,A, D4- | D6 | C,A, D4- | D6 | F,D F4- | F6 | F,D F4- | F6 | %116
 C,A, D4- | D6 | C,A, D4- | D6 | F,D F4- | FD F4 | F,D F4- | FD F4 | C,A, D4- | D6 | C,A, D4- | %127
 D6 | [C,E,G,B,]6- | [C,E,G,B,]6 |] %130

